Source Code/mun/assets/flags/EST.svg

<svg viewBox="0 0 40.5 40.37" xmlns="http://www.w3.org/2000/svg"><path d="m39.35 13.46h-38.2a20.24 20.24 0 0 1 17.55-13.46h3.1a20.24 20.24 0 0 1 17.55 13.46z" fill="#0072ce"/><path d="m40.5 20.18a20.33 20.33 0 0 1 -1.15 6.73h-38.2a20.24 20.24 0 0 1 0-13.45h38.2a20.27 20.27 0 0 1 1.15 6.72z"/><path d="m39.35 26.91a20.24 20.24 0 0 1 -17.55 13.46h-3.1a20.24 20.24 0 0 1 -17.55-13.46z" fill="#fff"/></svg>

<svg xmlns="http://www.w3.org/2000/svg" viewBox="0 0 40.5 40.37"><defs><style>.cls-1{fill:#0072ce;}.cls-2{fill:#fff;}</style></defs><g id="Ebene_2" data-name="Ebene 2"><g id="Ńëîé_1" data-name="Ńëîé 1"><path class="cls-1" d="M39.35,13.46H1.15A20.24,20.24,0,0,1,18.7,0h3.1A20.24,20.24,0,0,1,39.35,13.46Z"/><path d="M40.5,20.18a20.33,20.33,0,0,1-1.15,6.73H1.15a20.24,20.24,0,0,1,0-13.45h38.2A20.27,20.27,0,0,1,40.5,20.18Z"/><path class="cls-2" d="M39.35,26.91A20.24,20.24,0,0,1,21.8,40.37H18.7A20.24,20.24,0,0,1,1.15,26.91Z"/></g></g></svg>
